X: 1
P: The Panelmine Jig
C: John Campbell (1956)
C: Winston Fitzgerald Colln., arr. Terry Traub 4-29-2000
M: 6/8
L: 1/8
R: Jig
K: A
F|: "A"EAc e3|"D"dcd f3|"A"ecA EAc|"E7"dBB B2 c|"A"EAc e3|"D"dcd f2 a|"E"gaf eae |1 "A"cAA ABc :|2 "A"cAA A2 ||
|: d|"A"c2 A ecA|"D"dfa f2 d|"A"c2 A ecA|"Bm"Bcd "E"c2 B|"A"c2 A ecA|"D"dfa f2 a|"E"gaf eae|"A"cAA A2 :|
